web-app/public/logo_simple.svg

<?xml version="1.0" encoding="UTF-8" standalone="no"?><!DOCTYPE svg PUBLIC "-//W3C//DTD SVG 1.1//EN" "http://www.w3.org/Graphics/SVG/1.1/DTD/svg11.dtd"><svg width="100%" height="100%" viewBox="0 0 500 500" version="1.1" style="fill-rule:evenodd;clip-rule:evenodd;stroke-linejoin:round;stroke-miterlimit:2;"><path d="M333.189,122.218l-8.63,41.962l105.005,-0l-14.082,68.482l-104.992,0l-28.478,138.618l-79.985,0l28.479,-138.618l-43.017,0l-51.036,248.394l-79.691,-0l51.048,-248.394l-106.341,0l13.812,-68.482l229.294,-0l22.828,-111.066l231.382,0l-14.199,69.104l-151.397,-0Z" style="fill:#fff;fill-rule:nonzero;"/></svg>

<?xml version="1.0" encoding="UTF-8" standalone="no"?>
<!-- Created with Inkscape (http://www.inkscape.org/) -->

<svg
   width="131.58153mm"
   height="113.22634mm"
   viewBox="0 0 131.58153 113.22634"
   version="1.1"
   id="svg5"
   xml:space="preserve"
   inkscape:version="1.2 (dc2aeda, 2022-05-15)"
   sodipodi:docname="logo_simple.svg"
   xmlns:inkscape="http://www.inkscape.org/namespaces/inkscape"
   xmlns:sodipodi="http://sodipodi.sourceforge.net/DTD/sodipodi-0.dtd"
   xmlns="http://www.w3.org/2000/svg"
   xmlns:svg="http://www.w3.org/2000/svg"><sodipodi:namedview
     id="namedview7"
     pagecolor="#ffffff"
     bordercolor="#000000"
     borderopacity="0.25"
     inkscape:showpageshadow="2"
     inkscape:pageopacity="0.0"
     inkscape:pagecheckerboard="0"
     inkscape:deskcolor="#d1d1d1"
     inkscape:document-units="mm"
     showgrid="false"
     inkscape:zoom="0.84096521"
     inkscape:cx="83.832244"
     inkscape:cy="316.30322"
     inkscape:window-width="1536"
     inkscape:window-height="960"
     inkscape:window-x="0"
     inkscape:window-y="263"
     inkscape:window-maximized="0"
     inkscape:current-layer="layer1" /><defs
     id="defs2" /><g
     inkscape:label="Layer 1"
     inkscape:groupmode="layer"
     id="layer1"
     transform="translate(-26.392501,-43.750189)"><g
       style="clip-rule:evenodd;fill-rule:evenodd;stroke-linejoin:round;stroke-miterlimit:2"
       id="g187"
       transform="matrix(0.26458333,0,0,0.26458333,26.003828,29.697109)"><path
         d="m 333.189,122.218 -8.63,41.962 h 105.005 l -14.082,68.482 H 310.49 L 282.012,371.28 H 202.027 L 230.506,232.662 H 187.489 L 136.453,481.056 H 56.762 L 107.81,232.662 H 1.469 L 15.281,164.18 H 244.575 L 267.403,53.114 h 231.382 l -14.199,69.104 z"
         style="fill:#ffffff;fill-rule:nonzero"
         id="path178" /></g></g></svg>
